icons/core/login.svg

<svg width="32" height="32" viewBox="0 0 32 32" fill="none" xmlns="http://www.w3.org/2000/svg">
<path fill-rule="evenodd" clip-rule="evenodd" d="M11.9998 4C11.9998 2.89543 12.8953 2 13.9998 2H25.9998C27.1044 2 27.9998 2.89543 27.9998 4V28C27.9998 29.1046 27.1044 30 25.9998 30H13.9998C12.8953 30 11.9998 29.1046 11.9998 28V25H13.9998V28H25.9998V4H13.9998V7H11.9998V4ZM18.5858 17.0003L14.7926 20.7935L16.2069 22.2077L21.7071 16.7074L22.4142 16.0003L21.7071 15.2932L16.2069 9.79298L14.7926 11.2072L18.5858 15.0003L3.99976 15.0003V17.0003L18.5858 17.0003Z" fill="black"/>
</svg>

<svg width="32" height="32" viewBox="0 0 32 32" xmlns="http://www.w3.org/2000/svg">
    <path fill-rule="evenodd" d="M12 4a2 2 0 012-2h12a2 2 0 012 2v24a2 2 0 01-2 2H14a2 2 0 01-2-2v-3h2v3h12V4H14v3h-2V4zm6.586 13l-3.793 3.794 1.414 1.414 5.5-5.5.707-.708-.707-.707-5.5-5.5-1.414 1.414L18.586 15H4v2h14.586z"/>
</svg>
